X:1
T:Domine fili
T:Domine fili
T:Lupus Hellinck
T:Source : Il primo libro di madrigali a 3 voci---Venetia---A.Gardano---1559. Editor : André Vierendeels (26/10/14).
T:Notes : Original clefs : G2, C2, C3 Original note values have been halved Editorial accidentals above the staff Signed "Lupus" m6 in Tenor: "sol" noted as "la" in original print
C:Lupus Hellinck
%%score [ 1 2 3 ]
L:1/8
Q:1/4=120
M:2/2
K:F
V:1 treble nm="Canto" snm="C"
V:2 treble nm="Alto" snm="A"
V:3 treble-8 nm="Tenor" snm="T"
V:1
 z8 | z8 | z8 | d3 d z4 | d2 c2 B2 G2 | A3 B cd _e2- | ed d3 c cB/A/ | B2 G2 A4 | z2 G2 GA Bc | %9
w: |||Do- mi-|ne fi- li u-|ni- * * * ge-||* ni- te|Ie- su _ _ _|
"^b" de d3 c BA | B4 A3 B | c2 d4 c2- | cB AG A4 | G4 z2 d2 | d2 d2 f3 e | d2 c2 d4 | z8 | %17
w: _ _ _ _ _ _|Chri- * *|||ste, Do-|mi- ne De- *|* * us,||
 z2 d2 d2 d2 | f3 e d2 c2 | d4 G4 | z2 d4 cB | c2 f3 e d2- | dc c2 d3 c | A4 z4 | z4 z2 A2- | %25
w: Do- mi- ne|De- * * *|* us,|a- * *|gnus De- * *||i|fi-|
 A2 c2 B2 A2- | A2 GF GF ED | E4 D4 | z8 | z8 | z2 d4 f2 |"^b" e2 d4 cB | cB AG A4 | G8 |] %34
w: * li- us pa-||* tris,|||fi- li-|us pa- * *||tris.|
V:2
 z8 | z8 | G3 G G2 F2 | E2 C2 D3 E | FG A3 G G2- | GF FE/D/ E2 C2 | D2 G3 F F2 | G2 E2 D4 | %8
w: ||Do- mi- ne fi-|li u- ni- *|* * * * ge-|* * * * * * ni-|te Ie- * su|Chri- * ste,|
 C3 D EF GA | B3 A F2 G2- | GF DE FG A2- | AG FE D2 A2- | AG G4 F2 | G3 F GA B2- | B2 AG F3 G | %15
w: Ie- * * * * *|* * * su-||* * * * * Chri-||ste, _ _ _ _|_ _ _ _ _|
 A4 z2 G2 | G2 B4 AG | A4 B4 | A8 | z2 G2 G2 B2- | B2 AG B2 A2- | AG FE D2 F2 | E4 z2 D2- | %23
w: * Do-|mi- * * *|ne De-|us,|a- gnus De-|||i fi-|
 D2 F2 E2 D2- | D2 CB, CB, A,G, | A,4 G,2 D2 | F2 E3 D D2- |"^-natural" DB, CD/E/ FG AF | %28
w: * li- us pa-||* tris, fi-|li- us _ pa-||
 GA BA FG A2- |"^#" A2 G4 F2 | G2 B4 A2 | B3 A/G/ FG A2- |"^#" AG G4 F2 | G8 |] %34
w: ||tris, fi- li-|us _ _ _ _ _|_ _ pa- *|tris.|
V:3
 d3 d d2 c2 | B2 G2 A3 B |"^b" cd e3 d d2- | dc cB/A/ B2 G2 | A4 z4 | d3 d c2 G2 | B2 G2 A4 | %7
w: Do- mi- ne fi-|li u- ni _|_ _ ge- * *|* * * * * * ni-|te,|Do- mi- ne fi-|li u- ni-|
 G2 g4 f2 | g4 z4 | z4 z2 G2- | GA Bc de f2- | fe dc B2 AG | F2 G2 d3 c | B2 c4 BA | G4 z2 d2 | %15
w: ge- * ni-|te,|Ie-|* * * * * * su|_ _ _ _ _ _ _|* * Chri- *||ste, Do-|
 d2 f4 ed | ef g2 d2 g2- | g2 f2 g4 | z2 d2 d2 f2- | f2 ed ef g2- | g2 fe de f2- | fe dc Bc d2 | %22
w: mi- ne _ _|_ _ _ _ De-|* * us,|a- gnus De-||||
 A4 z4 | d4 g2 f2- | f2 ed e2 f2- | fe c2 d3 c | AB c3 d B2 | A4 d2 f2 | e2 d4 cB | cB AG A4 | %30
w: i|fi- li- us|_ _ _ _ pa-|||tris, fi- li-|us pa- * *||
 G2 g4 f2 | g3 f/e/ d2 f2- | fg e2 d4 | G8 |] %34
w: tris, fi- li-|us _ _ _ pa-||tris.|

